T: Rory O'More
M: 6/8
L: 1/8
K: Gmaj
dGG BGG | dGG G2 e | dcB BAG | FAA AA/B/c |dGG BGG | dGG edc | BB/c/d def | gGG G2 :|gfe edB | cBA G2 F | EFG GAB | Bed def |g2 f edB | cBA GAF |1 E2 F GAB | ed^c de :|2 EGG GG/A/B | ed^c d2 ||
